img/part6/6/3_機器設備提供_icon.svg

<svg width="41" height="40" viewBox="0 0 41 40" fill="none" xmlns="http://www.w3.org/2000/svg"><path d="M38.4193 6.26072C38.4036 6.24505 35.2284 9.38371 28.9093 15.6924L24.4755 11.2585L33.9228 1.81124C28.9511 -1.1812 22.5641 -0.413505 18.4227 3.72785C16.8397 5.31002 15.7005 7.2806 15.1193 9.44198C14.5382 11.6034 14.5356 13.8796 15.1117 16.0423L15.2057 16.3922L0.400251 31.1924C0.0764625 31.5162 0.0764625 32.0489 0.400251 32.3727L7.78472 39.7572C8.10851 40.0809 8.64119 40.0809 8.96498 39.7572L23.76 24.9621L24.1099 25.0561C28.4811 26.2207 33.176 25.0091 36.4348 21.7503C40.5814 17.609 41.349 11.222 38.4193 6.26072Z" fill="#B04B19"></path></svg>

<svg width="41" height="40" fill="none" xmlns="http://www.w3.org/2000/svg"><path d="M38.42 6.26c-.016-.015-3.192 3.124-9.51 9.432l-4.434-4.434 9.447-9.447a12.668 12.668 0 0 0-15.5 1.917 12.766 12.766 0 0 0-3.311 12.314l.094.35L.4 31.192a.839.839 0 0 0 0 1.18l7.385 7.385a.839.839 0 0 0 1.18 0L23.76 24.962l.35.094a12.756 12.756 0 0 0 12.325-3.306c4.146-4.141 4.914-10.528 1.984-15.49Z" fill="#B04B19"/></svg>
